; Generated by Drawing Maker
G21 ; Units MM
G90 ; Absolute Positioning
G0 Z5 ; Pen Up
G0 F2000 ; Set Feedrate
G0 X11.00 Y15.00
G0 Z0
G1 X10.00 Y15.00
G1 X11.00 Y15.00
G1 X12.00 Y14.98
G1 X13.00 Y14.69
G1 X14.00 Y13.97
G1 X15.00 Y13.08
G1 X16.00 Y12.48
G1 X17.00 Y12.52
G1 X18.00 Y13.21
G1 X19.00 Y14.11
G1 X20.00 Y14.55
G1 X21.00 Y14.34
G1 X22.00 Y13.91
G1 X23.00 Y13.85
G1 X24.00 Y14.39
G1 X25.00 Y15.16
G1 X26.00 Y15.59
G1 X27.00 Y15.25
G1 X28.00 Y14.38
G1 X29.00 Y13.67
G1 X30.00 Y13.68
G1 X31.00 Y14.43
G1 X32.00 Y15.48
G1 X33.00 Y16.31
G1 X34.00 Y16.56
G1 X35.00 Y16.27
G1 X36.00 Y15.80
G1 X37.00 Y15.55
G1 X38.00 Y15.61
G1 X39.00 Y15.71
G1 X40.00 Y15.71
G1 X41.00 Y15.59
G1 X42.00 Y15.40
G1 X43.00 Y15.10
G1 X44.00 Y14.68
G1 X45.00 Y14.20
G1 X46.00 Y13.71
G1 X47.00 Y13.35
G1 X48.00 Y13.29
G1 X49.00 Y13.64
G1 X50.00 Y14.09
G1 X51.00 Y14.22
G1 X52.00 Y13.82
G1 X53.00 Y13.07
G1 X54.00 Y12.50
G1 X55.00 Y12.57
G1 X56.00 Y13.48
G1 X57.00 Y14.85
G1 X58.00 Y15.83
G1 X59.00 Y15.84
G1 X60.00 Y15.00
G1 X61.00 Y13.79
G1 X62.00 Y12.77
G1 X63.00 Y12.37
G1 X64.00 Y12.47
G1 X65.00 Y12.72
G1 X66.00 Y12.97
G1 X67.00 Y13.32
G1 X68.00 Y14.04
G1 X69.00 Y15.16
G1 X70.00 Y16.20
G1 X71.00 Y16.69
G1 X72.00 Y16.36
G1 X73.00 Y15.31
G1 X74.00 Y14.05
G1 X75.00 Y13.15
G1 X76.00 Y12.81
G1 X77.00 Y12.97
G1 X78.00 Y13.60
G1 X79.00 Y14.53
G1 X80.00 Y15.54
G1 X81.00 Y16.39
G1 X82.00 Y16.79
G1 X83.00 Y16.71
G1 X84.00 Y16.32
G1 X85.00 Y15.64
G1 X86.00 Y14.62
G1 X87.00 Y13.60
G1 X88.00 Y13.11
G1 X89.00 Y13.45
G1 X90.00 Y14.47
G1 X91.00 Y15.74
G1 X92.00 Y16.67
G1 X93.00 Y16.98
G1 X94.00 Y16.77
G1 X95.00 Y16.23
G1 X96.00 Y15.50
G1 X97.00 Y14.63
G1 X98.00 Y13.56
G1 X99.00 Y12.62
G1 X100.00 Y12.27
G1 X101.00 Y12.75
G1 X102.00 Y14.06
G1 X103.00 Y15.76
G1 X104.00 Y17.09
G1 X105.00 Y17.59
G1 X106.00 Y17.31
G1 X107.00 Y16.57
G1 X108.00 Y15.98
G1 X109.00 Y15.94
G1 X110.00 Y16.32
G1 X111.00 Y16.72
G1 X112.00 Y16.85
G1 X113.00 Y16.65
G1 X114.00 Y16.14
G1 X115.00 Y15.22
G1 X116.00 Y14.08
G1 X117.00 Y13.24
G1 X118.00 Y13.18
G1 X119.00 Y13.95
G1 X120.00 Y15.20
G1 X121.00 Y16.35
G1 X122.00 Y16.90
G1 X123.00 Y16.56
G1 X124.00 Y15.49
G1 X125.00 Y14.27
G1 X126.00 Y13.44
G1 X127.00 Y13.08
G1 X128.00 Y13.06
G1 X129.00 Y13.42
G1 X130.00 Y14.12
G1 X131.00 Y14.87
G1 X132.00 Y15.33
G1 X133.00 Y15.35
G1 X134.00 Y15.01
G1 X135.00 Y14.61
G1 X136.00 Y14.27
G1 X137.00 Y13.86
G1 X138.00 Y13.44
G1 X139.00 Y13.28
G1 X140.00 Y13.66
G1 X141.00 Y14.56
G1 X142.00 Y15.66
G1 X143.00 Y16.46
G1 X144.00 Y16.86
G1 X145.00 Y17.13
G1 X146.00 Y17.39
G1 X147.00 Y17.51
G1 X148.00 Y17.20
G1 X149.00 Y16.25
G1 X150.00 Y15.00
G1 X151.00 Y14.02
G1 X152.00 Y13.64
G1 X153.00 Y13.62
G1 X154.00 Y13.54
G1 X155.00 Y13.27
G1 X156.00 Y13.04
G1 X157.00 Y13.24
G1 X158.00 Y13.81
G1 X159.00 Y14.45
G1 X160.00 Y15.00
G1 X161.00 Y15.54
G1 X162.00 Y16.20
G1 X163.00 Y16.97
G1 X164.00 Y17.49
G1 X165.00 Y17.50
G1 X166.00 Y17.24
G1 X167.00 Y17.05
G1 X168.00 Y16.97
G1 X169.00 Y16.73
G1 X170.00 Y15.97
G1 X171.00 Y14.79
G1 X172.00 Y13.70
G1 X173.00 Y13.27
G1 X174.00 Y13.88
G1 X175.00 Y15.20
G1 X176.00 Y16.33
G1 X177.00 Y16.51
G1 X178.00 Y15.79
G1 X179.00 Y14.68
G1 X180.00 Y13.71
G1 X181.00 Y13.24
G1 X182.00 Y13.25
G1 X183.00 Y13.40
G1 X184.00 Y13.53
G1 X185.00 Y13.71
G1 X186.00 Y14.19
G1 X187.00 Y14.93
G1 X188.00 Y15.60
G1 X189.00 Y15.82
G0 Z5
G0 X13.37 Y13.47
G0 Z0
G1 X12.37 Y13.45
G1 X13.37 Y13.47
G1 X14.37 Y13.46
G1 X15.37 Y13.19
G1 X16.39 Y12.49
G1 X17.40 Y11.62
G1 X18.41 Y11.04
G1 X19.41 Y11.10
G1 X20.40 Y11.80
G1 X21.38 Y12.71
G1 X22.38 Y13.18
G1 X23.38 Y12.99
G1 X24.39 Y12.57
G1 X25.39 Y12.53
G1 X26.38 Y13.09
G1 X27.36 Y13.87
G1 X28.36 Y14.32
G1 X29.36 Y14.00
G1 X30.38 Y13.14
G1 X31.39 Y12.45
G1 X32.39 Y12.48
G1 X33.38 Y13.24
G1 X34.36 Y14.31
G1 X35.34 Y15.16
G1 X36.34 Y15.43
G1 X37.34 Y15.16
G1 X38.35 Y14.71
G1 X39.36 Y14.47
G1 X40.35 Y14.55
G1 X41.35 Y14.67
G1 X42.35 Y14.68
G1 X43.35 Y14.58
G1 X44.36 Y14.40
G1 X45.36 Y14.12
G1 X46.37 Y13.73
G1 X47.38 Y13.26
G1 X48.39 Y12.79
G1 X49.39 Y12.44
G1 X50.39 Y12.41
G1 X51.39 Y12.77
G1 X52.38 Y13.24
G1 X53.38 Y13.39
G1 X54.38 Y13.00
G1 X55.40 Y12.27
G1 X56.41 Y11.72
G1 X57.41 Y11.81
G1 X58.39 Y12.74
G1 X59.37 Y14.12
G1 X60.35 Y15.12
G1 X61.35 Y15.15
G1 X62.36 Y14.32
G1 X63.38 Y13.13
G1 X64.40 Y12.13
G1 X65.41 Y11.75
G1 X66.41 Y11.86
G1 X67.40 Y12.13
G1 X68.40 Y12.40
G1 X69.39 Y12.76
G1 X70.38 Y13.50
G1 X71.36 Y14.64
G1 X72.34 Y15.70
G1 X73.33 Y16.21
G1 X74.34 Y15.89
G1 X75.35 Y14.86
G1 X76.38 Y13.61
G1 X77.39 Y12.73
G1 X78.40 Y12.41
G1 X79.40 Y12.59
G1 X80.38 Y13.23
G1 X81.37 Y14.18
G1 X82.35 Y15.21
G1 X83.33 Y16.08
G1 X84.33 Y16.49
G1 X85.33 Y16.43
G1 X86.34 Y16.06
G1 X87.35 Y15.40
G1 X88.36 Y14.40
G1 X89.38 Y13.40
G1 X90.39 Y12.93
G1 X91.38 Y13.27
G1 X92.37 Y14.32
G1 X93.34 Y15.60
G1 X94.33 Y16.55
G1 X95.32 Y16.88
G1 X96.33 Y16.69
G1 X97.34 Y16.16
G1 X98.35 Y15.46
G1 X99.36 Y14.59
G1 X100.38 Y13.54
G1 X101.40 Y12.62
G1 X102.40 Y12.29
G1 X103.40 Y12.79
G1 X104.37 Y14.11
G1 X105.34 Y15.83
G1 X106.32 Y17.18
G1 X107.31 Y17.70
G1 X108.31 Y17.43
G1 X109.33 Y16.72
G1 X110.34 Y16.14
G1 X111.34 Y16.12
G1 X112.33 Y16.51
G1 X113.32 Y16.93
G1 X114.32 Y17.08
G1 X115.33 Y16.89
G1 X116.33 Y16.41
G1 X117.35 Y15.51
G1 X118.37 Y14.38
G1 X119.38 Y13.56
G1 X120.39 Y13.51
G1 X121.37 Y14.30
G1 X122.35 Y15.57
G1 X123.33 Y16.74
G1 X124.32 Y17.30
G1 X125.33 Y16.98
G1 X126.34 Y15.93
G1 X127.36 Y14.73
G1 X128.38 Y13.91
G1 X129.39 Y13.57
G1 X130.39 Y13.57
G1 X131.38 Y13.94
G1 X132.37 Y14.66
G1 X133.35 Y15.43
G1 X134.35 Y15.91
G1 X135.34 Y15.95
G1 X136.35 Y15.63
G1 X137.36 Y15.24
G1 X138.36 Y14.92
G1 X139.37 Y14.52
G1 X140.38 Y14.13
G1 X141.38 Y13.98
G1 X142.37 Y14.38
G1 X143.36 Y15.30
G1 X144.34 Y16.41
G1 X145.32 Y17.23
G1 X146.32 Y17.65
G1 X147.31 Y17.94
G1 X148.31 Y18.21
G1 X149.31 Y18.35
G1 X150.31 Y18.06
G1 X151.33 Y17.13
G1 X152.35 Y15.89
G1 X153.37 Y14.93
G1 X154.37 Y14.57
G1 X155.37 Y14.57
G1 X156.37 Y14.50
G1 X157.38 Y14.25
G1 X158.38 Y14.04
G1 X159.38 Y14.26
G1 X160.37 Y14.84
G1 X161.36 Y15.50
G1 X162.35 Y16.07
G1 X163.34 Y16.62
G1 X164.33 Y17.31
G1 X165.31 Y18.09
G1 X166.30 Y18.63
G1 X167.30 Y18.65
G1 X168.31 Y18.41
G1 X169.31 Y18.24
G1 X170.31 Y18.18
G1 X171.32 Y17.96
G1 X172.33 Y17.22
G1 X173.35 Y16.05
G1 X174.37 Y14.98
G1 X175.38 Y14.56
G1 X176.36 Y15.19
G1 X177.34 Y16.53
G1 X178.32 Y17.67
G1 X179.32 Y17.88
G1 X180.33 Y17.17
G1 X181.35 Y16.08
G1 X182.37 Y15.13
G1 X183.37 Y14.68
G1 X184.37 Y14.70
G1 X185.37 Y14.87
G1 X186.37 Y15.02
G1 X187.37 Y15.22
G1 X188.36 Y15.71
G1 X189.34 Y16.46
G1 X190.33 Y17.16
G1 X191.33 Y17.39
G0 Z5
G0 X13.30 Y17.56
G0 Z0
G1 X12.30 Y17.61
G1 X13.30 Y17.56
G1 X14.30 Y17.52
G1 X15.30 Y17.59
G1 X16.30 Y17.56
G1 X17.31 Y17.15
G1 X18.32 Y16.44
G1 X19.33 Y15.72
G1 X20.34 Y15.23
G1 X21.35 Y14.75
G1 X22.36 Y14.09
G1 X23.37 Y13.43
G1 X24.38 Y13.20
G1 X25.37 Y13.70
G1 X26.35 Y14.76
G1 X27.33 Y15.90
G1 X28.32 Y16.48
G1 X29.33 Y16.09
G1 X30.34 Y15.08
G1 X31.36 Y14.32
G1 X32.36 Y14.45
G1 X33.34 Y15.39
G1 X34.32 Y16.65
G1 X35.30 Y17.64
G1 X36.29 Y17.95
G1 X37.30 Y17.67
G1 X38.31 Y17.30
G1 X39.31 Y17.33
G1 X40.30 Y17.76
G1 X41.29 Y18.10
G1 X42.29 Y18.05
G1 X43.30 Y17.63
G1 X44.31 Y17.15
G1 X45.31 Y16.99
G1 X46.31 Y17.29
G1 X47.30 Y17.81
G1 X48.29 Y18.13
G1 X49.30 Y18.01
G1 X50.30 Y17.72
G1 X51.30 Y17.60
G1 X52.30 Y17.63
G1 X53.31 Y17.47
G1 X54.32 Y16.71
G1 X55.34 Y15.52
G1 X56.36 Y14.44
G1 X57.37 Y14.01
G1 X58.35 Y14.72
G1 X59.33 Y16.42
G1 X60.29 Y18.22
G1 X61.28 Y19.16
G1 X62.28 Y18.96
G1 X63.30 Y18.03
G1 X64.32 Y16.87
G1 X65.33 Y15.97
G1 X66.34 Y15.58
G1 X67.34 Y15.60
G1 X68.34 Y15.82
G1 X69.33 Y16.12
G1 X70.33 Y16.50
G1 X71.32 Y16.98
G1 X72.31 Y17.42
G1 X73.31 Y17.62
G1 X74.31 Y17.33
G1 X75.33 Y16.51
G1 X76.34 Y15.45
G1 X77.36 Y14.55
G1 X78.37 Y14.14
G1 X79.36 Y14.46
G1 X80.35 Y15.37
G1 X81.33 Y16.39
G1 X82.32 Y17.03
G1 X83.31 Y17.24
G1 X84.31 Y17.31
G1 X85.31 Y17.33
G1 X86.31 Y17.29
G1 X87.32 Y17.12
G1 X88.33 Y16.65
G1 X89.34 Y16.05
G1 X90.34 Y15.71
G1 X91.34 Y15.93
G1 X92.33 Y16.70
G1 X93.31 Y17.68
G1 X94.30 Y18.40
G1 X95.29 Y18.48
G1 X96.31 Y17.86
G1 X97.32 Y16.86
G1 X98.34 Y15.91
G1 X99.35 Y15.27
G1 X100.36 Y15.02
G1 X101.35 Y15.12
G1 X102.35 Y15.46
G1 X103.34 Y16.00
G1 X104.32 Y16.84
G1 X105.31 Y17.96
G1 X106.29 Y19.09
G1 X107.27 Y19.93
G1 X108.27 Y20.10
G1 X109.28 Y19.50
G1 X110.30 Y18.49
G1 X111.31 Y17.61
G1 X112.32 Y17.20
G1 X113.32 Y17.11
G1 X114.32 Y17.10
G1 X115.32 Y17.15
G1 X116.32 Y17.24
G1 X117.32 Y17.19
G1 X118.33 Y16.90
G1 X119.33 Y16.55
G1 X120.33 Y16.50
G1 X121.33 Y16.93
G1 X122.31 Y17.72
G1 X123.30 Y18.39
G1 X124.30 Y18.47
G1 X125.31 Y17.86
G1 X126.33 Y16.91
G1 X127.34 Y16.07
G1 X128.35 Y15.70
G1 X129.35 Y15.78
G1 X130.34 Y16.32
G1 X131.32 Y17.39
G1 X132.30 Y18.60
G1 X133.29 Y19.34
G1 X134.29 Y19.25
G1 X135.30 Y18.42
G1 X136.32 Y17.31
G1 X137.34 Y16.45
G1 X138.34 Y16.05
G1 X139.35 Y15.91
G1 X140.35 Y15.89
G1 X141.34 Y16.02
G1 X142.34 Y16.50
G1 X143.32 Y17.50
G1 X144.30 Y18.73
G1 X145.28 Y19.62
G1 X146.28 Y19.83
G1 X147.28 Y19.69
G1 X148.28 Y19.71
G1 X149.28 Y20.04
G1 X150.27 Y20.36
G1 X151.27 Y20.17
G1 X152.28 Y19.54
G1 X153.29 Y18.99
G1 X154.30 Y18.93
G1 X155.29 Y19.32
G1 X156.28 Y19.76
G1 X157.28 Y19.86
G1 X158.28 Y19.60
G1 X159.29 Y19.12
G1 X160.31 Y18.40
G1 X161.32 Y17.56
G1 X162.33 Y17.03
G1 X163.33 Y17.18
G1 X164.31 Y18.06
G1 X165.29 Y19.32
G1 X166.27 Y20.40
G1 X167.26 Y20.88
G1 X168.26 Y20.85
G1 X169.27 Y20.62
G1 X170.27 Y20.38
G1 X171.28 Y20.04
G1 X172.29 Y19.37
G1 X173.31 Y18.32
G1 X174.33 Y17.38
G1 X175.33 Y17.03
G1 X176.33 Y17.43
G1 X177.31 Y18.28
G1 X178.30 Y18.96
G1 X179.30 Y19.04
G1 X180.30 Y18.70
G1 X181.31 Y18.30
G1 X182.32 Y17.94
G1 X183.32 Y17.60
G1 X184.33 Y17.29
G1 X185.33 Y17.02
G1 X186.34 Y16.83
G1 X187.34 Y16.85
G1 X188.33 Y17.20
G1 X189.32 Y17.96
G1 X190.30 Y19.10
G1 X191.28 Y20.17
G0 Z5
G0 X13.28 Y18.70
G0 Z0
G1 X12.29 Y18.17
G1 X13.28 Y18.70
G1 X14.26 Y19.65
G1 X15.25 Y20.48
G1 X16.24 Y20.73
G1 X17.25 Y20.28
G1 X18.27 Y19.25
G1 X19.29 Y18.12
G1 X20.30 Y17.29
G1 X21.31 Y16.79
G1 X22.32 Y16.60
G1 X23.31 Y16.76
G1 X24.30 Y17.34
G1 X25.29 Y18.39
G1 X26.26 Y19.64
G1 X27.25 Y20.54
G1 X28.25 Y20.64
G1 X29.26 Y19.77
G1 X30.29 Y18.37
G1 X31.31 Y17.30
G1 X32.31 Y17.14
G1 X33.30 Y17.69
G1 X34.29 Y18.43
G1 X35.28 Y18.77
G1 X36.28 Y18.52
G1 X37.29 Y18.04
G1 X38.30 Y17.90
G1 X39.29 Y18.35
G1 X40.27 Y19.13
G1 X41.27 Y19.63
G1 X42.27 Y19.42
G1 X43.29 Y18.49
G1 X44.30 Y17.53
G1 X45.31 Y17.31
G1 X46.30 Y17.98
G1 X47.27 Y19.19
G1 X48.25 Y20.37
G1 X49.24 Y21.03
G1 X50.24 Y21.16
G1 X51.24 Y21.17
G1 X52.24 Y21.28
G1 X53.24 Y21.41
G1 X54.24 Y21.20
G1 X55.26 Y20.37
G1 X56.28 Y19.24
G1 X57.29 Y18.32
G1 X58.30 Y17.94
G1 X59.29 Y18.22
G1 X60.28 Y18.87
G1 X61.27 Y19.40
G1 X62.27 Y19.64
G1 X63.27 Y19.63
G1 X64.28 Y19.24
G1 X65.29 Y18.50
G1 X66.30 Y17.84
G1 X67.30 Y17.76
G1 X68.29 Y18.30
G1 X69.28 Y19.13
G1 X70.27 Y19.87
G1 X71.26 Y20.30
G1 X72.25 Y20.59
G1 X73.25 Y20.83
G1 X74.25 Y20.93
G1 X75.25 Y20.63
G1 X76.27 Y19.70
G1 X77.29 Y18.44
G1 X78.31 Y17.41
G1 X79.32 Y17.05
G1 X80.31 Y17.31
G1 X81.31 Y17.74
G1 X82.30 Y17.90
G1 X83.31 Y17.66
G1 X84.31 Y17.39
G1 X85.31 Y17.40
G1 X86.30 Y17.84
G1 X87.29 Y18.75
G1 X88.27 Y19.76
G1 X89.26 Y20.35
G1 X90.26 Y20.35
G1 X91.27 Y20.03
G1 X92.27 Y19.75
G1 X93.27 Y19.78
G1 X94.27 Y20.09
G1 X95.26 Y20.25
G1 X96.27 Y19.88
G1 X97.29 Y19.00
G1 X98.31 Y17.90
G1 X99.32 Y17.01
G1 X100.33 Y16.70
G1 X101.32 Y16.85
G1 X102.32 Y17.05
G1 X103.32 Y17.13
G1 X104.32 Y17.25
G1 X105.31 Y17.81
G1 X106.29 Y18.94
G1 X107.27 Y20.21
G1 X108.25 Y21.04
G1 X109.25 Y21.06
G1 X110.27 Y20.25
G1 X111.29 Y19.09
G1 X112.30 Y18.19
G1 X113.31 Y17.77
G1 X114.31 Y17.72
G1 X115.30 Y18.08
G1 X116.29 Y18.82
G1 X117.28 Y19.65
G1 X118.27 Y20.13
G1 X119.27 Y20.01
G1 X120.28 Y19.55
G1 X121.29 Y19.20
G1 X122.29 Y19.20
G1 X123.28 Y19.41
G1 X124.28 Y19.48
G1 X125.29 Y19.25
G1 X126.29 Y18.89
G1 X127.30 Y18.67
G1 X128.30 Y18.66
G1 X129.29 Y18.86
G1 X130.28 Y19.34
G1 X131.27 Y20.21
G1 X132.25 Y21.20
G1 X133.24 Y21.78
G1 X134.25 Y21.59
G1 X135.26 Y20.70
G1 X136.28 Y19.53
G1 X137.30 Y18.63
G1 X138.30 Y18.35
G1 X139.30 Y18.52
G1 X140.30 Y18.73
G1 X141.30 Y18.83
G1 X142.29 Y19.00
G1 X143.28 Y19.55
G1 X144.27 Y20.26
G1 X145.27 Y20.53
G1 X146.27 Y20.21
G1 X147.28 Y19.76
G1 X148.28 Y19.76
G1 X149.27 Y20.38
G1 X150.26 Y21.18
G1 X151.25 Y21.62
G1 X152.25 Y21.54
G1 X153.26 Y21.17
G1 X154.26 Y20.91
G1 X155.26 Y20.95
G1 X156.26 Y21.11
G1 X157.26 Y21.19
G1 X158.26 Y21.16
G1 X159.26 Y21.00
G1 X160.27 Y20.47
G1 X161.29 Y19.49
G1 X162.31 Y18.45
G1 X163.32 Y17.88
G1 X164.31 Y18.11
G1 X165.30 Y19.01
G1 X166.28 Y20.16
G1 X167.26 Y21.13
G1 X168.25 Y21.71
G1 X169.24 Y22.02
G1 X170.24 Y22.17
G1 X171.24 Y22.15
G1 X172.25 Y21.80
G1 X173.26 Y21.21
G1 X174.26 Y20.93
G1 X175.26 Y21.21
G1 X176.25 Y21.72
G1 X177.25 Y21.86
G1 X178.26 Y21.37
G1 X179.27 Y20.52
G1 X180.28 Y19.83
G1 X181.29 Y19.63
G1 X182.28 Y19.95
G1 X183.27 Y20.49
G1 X184.27 Y20.88
G1 X185.26 Y20.98
G1 X186.26 Y21.00
G1 X187.26 Y21.02
G1 X188.26 Y21.03
G1 X189.26 Y21.17
G1 X190.25 Y21.75
G1 X191.24 Y22.71
G0 Z5
G0 X13.27 Y19.08
G0 Z0
G1 X12.28 Y18.56
G1 X13.27 Y19.08
G1 X14.25 Y20.21
G1 X15.24 Y21.08
G1 X16.24 Y20.99
G1 X17.26 Y20.05
G1 X18.28 Y18.85
G1 X19.29 Y17.96
G1 X20.29 Y17.83
G1 X21.28 Y18.44
G1 X22.27 Y19.40
G1 X23.25 Y20.27
G1 X24.24 Y20.95
G1 X25.23 Y21.62
G1 X26.22 Y22.23
G1 X27.22 Y22.34
G1 X28.23 Y21.66
G1 X29.25 Y20.45
G1 X30.27 Y19.29
G1 X31.28 Y18.67
G1 X32.28 Y18.66
G1 X33.28 Y19.03
G1 X34.27 Y19.41
G1 X35.27 Y19.36
G1 X36.28 Y18.97
G1 X37.28 Y18.76
G1 X38.27 Y19.19
G1 X39.25 Y20.26
G1 X40.23 Y21.52
G1 X41.22 Y22.39
G1 X42.22 Y22.31
G1 X43.24 Y21.09
G1 X44.27 Y19.41
G1 X45.29 Y18.27
G1 X46.29 Y18.18
G1 X47.28 Y18.93
G1 X48.26 Y20.06
G1 X49.24 Y21.04
G1 X50.24 Y21.47
G1 X51.24 Y21.41
G1 X52.24 Y21.27
G1 X53.24 Y21.31
G1 X54.24 Y21.48
G1 X55.23 Y21.57
G1 X56.23 Y21.62
G1 X57.23 Y21.63
G1 X58.24 Y21.40
G1 X59.25 Y20.84
G1 X60.26 Y19.98
G1 X61.28 Y19.07
G1 X62.29 Y18.55
G1 X63.29 Y18.57
G1 X64.28 Y18.81
G1 X65.28 Y18.98
G1 X66.28 Y19.07
G1 X67.27 Y19.37
G1 X68.26 Y20.23
G1 X69.24 Y21.51
G1 X70.22 Y22.65
G1 X71.21 Y23.21
G1 X72.21 Y23.38
G1 X73.20 Y23.56
G1 X74.20 Y23.86
G1 X75.19 Y24.06
G1 X76.20 Y23.77
G1 X77.21 Y22.91
G1 X78.23 Y21.85
G1 X79.25 Y20.96
G1 X80.26 Y20.55
G1 X81.26 Y20.61
G1 X82.25 Y20.82
G1 X83.25 Y20.95
G1 X84.25 Y20.99
G1 X85.25 Y21.19
G1 X86.23 Y21.89
G1 X87.21 Y23.00
G1 X88.20 Y23.97
G1 X89.19 Y24.18
G1 X90.21 Y23.54
G1 X91.22 Y22.46
G1 X92.24 Y21.49
G1 X93.25 Y21.30
G1 X94.23 Y22.10
G1 X95.21 Y23.29
G1 X96.20 Y23.97
G1 X97.20 Y23.68
G1 X98.22 Y22.66
G1 X99.24 Y21.41
G1 X100.26 Y20.51
G1 X101.27 Y20.11
G1 X102.27 Y19.86
G1 X103.28 Y19.55
G1 X104.28 Y19.24
G1 X105.28 Y19.25
G1 X106.27 Y19.81
G1 X107.26 Y20.65
G1 X108.25 Y21.23
G1 X109.25 Y21.26
G1 X110.26 Y20.82
G1 X111.27 Y20.26
G1 X112.27 Y19.92
G1 X113.27 Y19.98
G1 X114.26 Y20.46
G1 X115.25 Y21.48
G1 X116.22 Y22.74
G1 X117.21 Y23.62
G1 X118.21 Y23.67
G1 X119.22 Y22.92
G1 X120.24 Y21.76
G1 X121.26 Y20.76
G1 X122.27 Y20.37
G1 X123.26 Y20.78
G1 X124.24 Y21.72
G1 X125.23 Y22.67
G1 X126.22 Y23.25
G1 X127.21 Y23.50
G1 X128.21 Y23.54
G1 X129.21 Y23.38
G1 X130.22 Y23.06
G1 X131.23 Y22.74
G1 X132.23 Y22.54
G1 X133.23 Y22.42
G1 X134.23 Y22.25
G1 X135.24 Y22.01
G1 X136.24 Y21.82
G1 X137.24 Y21.83
G1 X138.24 Y21.93
G1 X139.24 Y21.89
G1 X140.25 Y21.48
G1 X141.26 Y20.72
G1 X142.27 Y20.08
G1 X143.28 Y20.01
G1 X144.27 Y20.32
G1 X145.27 Y20.56
G1 X146.27 Y20.58
G1 X147.26 Y20.65
G1 X148.25 Y21.22
G1 X149.23 Y22.37
G1 X150.21 Y23.62
G1 X151.20 Y24.41
G1 X152.20 Y24.38
G1 X153.21 Y23.58
G1 X154.23 Y22.47
G1 X155.25 Y21.59
G1 X156.26 Y21.13
G1 X157.26 Y20.98
G1 X158.26 Y21.11
G1 X159.25 Y21.41
G1 X160.25 Y21.73
G1 X161.25 Y21.88
G1 X162.25 Y21.79
G1 X163.25 Y21.65
G1 X164.25 Y21.68
G1 X165.24 Y21.94
G1 X166.24 Y22.41
G1 X167.23 Y23.06
G1 X168.21 Y23.78
G1 X169.20 Y24.38
G1 X170.20 Y24.75
G1 X171.20 Y24.84
G1 X172.20 Y24.62
G1 X173.20 Y24.30
G1 X174.20 Y24.33
G1 X175.20 Y24.70
G1 X176.19 Y25.01
G1 X177.20 Y24.78
G1 X178.21 Y23.86
G1 X179.24 Y22.60
G1 X180.25 Y21.57
G1 X181.26 Y21.25
G1 X182.25 Y21.82
G1 X183.23 Y23.00
G1 X184.21 Y24.18
G1 X185.20 Y24.91
G1 X186.19 Y25.19
G1 X187.19 Y25.17
G1 X188.19 Y25.07
G1 X189.19 Y25.10
G1 X190.19 Y25.23
